X: 1
T: Elizabeth Kelly's Delight
M: 9/8
L: 1/8
R: slip jig
K: Ador
|:A3 ABA AGE|A2 EG2 E DEG|A3 ABA AGE|~G3 G2 E DEG:||
|:c2 A BAG AGE|cBA BGE DEG|c2 A BAG AGE|~G3 G2 E DEG:||
